findly-builder/apps/searchassist/src/assets/icons/resultTemplate/skelton-large.svg

<svg width="86" height="76" viewBox="0 0 86 76" fill="none" xmlns="http://www.w3.org/2000/svg">
<path fill-rule="evenodd" clip-rule="evenodd" d="M9.26412 0.5C4.23163 0.5 0.105469 4.72363 0.105469 9.875V66.125C0.105469 71.2764 4.23163 75.5 9.26412 75.5H76.4276C81.4601 75.5 85.5862 71.2764 85.5862 66.125V9.875C85.5862 4.72363 81.4601 0.5 76.4276 0.5H9.26412ZM9.26412 6.75H76.4276C78.1448 6.75 79.4805 8.11719 79.4805 9.875V55.2852L58.4654 32.5746C58.2632 32.356 57.9159 32.3616 57.7208 32.5865L46.1611 45.9102L28.1513 26.4706C27.9489 26.2523 27.6018 26.2579 27.4068 26.4828L6.21124 50.915V9.875C6.21124 8.11719 7.54688 6.75 9.26412 6.75ZM61.1632 13C57.8002 13 55.0574 15.8076 55.0574 19.25C55.0574 22.6924 57.8002 25.5 61.1632 25.5C64.5261 25.5 67.2689 22.6924 67.2689 19.25C67.2689 15.8076 64.5261 13 61.1632 13ZM27.9153 35.29L59.3744 69.25H9.26412C7.54688 69.25 6.21124 67.8828 6.21124 66.125V60.3389L27.9153 35.29ZM58.2057 41.418L79.4805 64.3672V66.125C79.4805 67.8828 78.1448 69.25 76.4276 69.25H67.7698L50.3827 50.4512L58.2057 41.418Z" fill="#BDC1C6"/>
</svg>

<svg width="86" height="76" fill="none" xmlns="http://www.w3.org/2000/svg"><path fill-rule="evenodd" clip-rule="evenodd" d="M9.264.5C4.232.5.105 4.724.105 9.875v56.25c0 5.151 4.127 9.375 9.16 9.375h67.163c5.032 0 9.158-4.224 9.158-9.375V9.875C85.586 4.724 81.46.5 76.428.5H9.264Zm0 6.25h67.164c1.717 0 3.053 1.367 3.053 3.125v45.41l-21.016-22.71a.5.5 0 0 0-.744.011L46.16 45.91 28.15 26.47a.5.5 0 0 0-.744.013L6.21 50.915V9.875c0-1.758 1.336-3.125 3.053-3.125Zm51.9 6.25c-3.364 0-6.107 2.808-6.107 6.25s2.743 6.25 6.106 6.25 6.106-2.808 6.106-6.25S64.526 13 61.163 13Zm-33.25 22.29 31.46 33.96H9.264c-1.718 0-3.054-1.367-3.054-3.125v-5.786L27.915 35.29Zm30.29 6.128 21.276 22.95v1.757c0 1.758-1.336 3.125-3.053 3.125H67.77L50.383 50.451l7.823-9.033Z" fill="#BDC1C6"/></svg>
